material/.icons/material/lock-check.svg

<svg xmlns="http://www.w3.org/2000/svg" viewBox="0 0 24 24"><path d="M18 8a2 2 0 012 2v10c0 1.1-.9 2-2 2H6a2 2 0 01-2-2V10c0-1.11.89-2 2-2h1V6C7 3.24 9.24.998 12 .998S17 3.24 17 6v2h1m-6-5c-1.66 0-3 1.34-3 3v2h6V6c0-1.66-1.34-3-3-3m-1 16l6.25-6.24-1.41-1.41L11 16.18 8.41 13.6 7 15l4 4z"/></svg>

<?xml version="1.0" encoding="UTF-8"?><!DOCTYPE svg PUBLIC "-//W3C//DTD SVG 1.1//EN" "http://www.w3.org/Graphics/SVG/1.1/DTD/svg11.dtd"><svg xmlns="http://www.w3.org/2000/svg" xmlns:xlink="http://www.w3.org/1999/xlink" version="1.1" id="mdi-lock-check" width="24" height="24" viewBox="0 0 24 24"><path d="M18 8C19.1 8 20 8.89 20 10V20C20 21.1 19.1 22 18 22H6C4.89 22 4 21.1 4 20V10C4 8.89 4.89 8 6 8H7V6C7 3.24 9.24 .998 12 .998C14.76 .998 17 3.24 17 6V8H18M12 3C10.34 3 9 4.34 9 6V8H15V6C15 4.34 13.66 3 12 3M11 19L17.25 12.76L15.84 11.35L11 16.18L8.41 13.6L7 15L11 19Z" /></svg>
